; generated by PrusaSlicer 2.2.0+linux-x64 on 2021-06-21 at 18:23:17 UTC

; 

; external perimeters extrusion width = 0.45mm
; perimeters extrusion width = 0.45mm
; infill extrusion width = 0.45mm
; solid infill extrusion width = 0.45mm
; top infill extrusion width = 0.40mm
; first layer extrusion width = 0.42mm

M73 P0 R74
M73 Q0 S75
M201 X1000 Y1000 Z200 E5000 ; sets maximum accelerations, mm/sec^2
M203 X200 Y200 Z12 E120 ; sets maximum feedrates, mm/sec
M204 P1250 R1250 T1250 ; sets acceleration (P, T) and retract acceleration (R), mm/sec^2
M205 X8.00 Y8.00 Z0.40 E4.50 ; sets the jerk limits, mm/sec
M205 S0 T0 ; sets the minimum extruding and travel feed rate, mm/sec
M107
M862.3 P "MK3S" ; printer model check
M862.1 P0.4 ; nozzle diameter check
M115 U3.9.3 ; tell printer latest fw version
G90 ; use absolute coordinates
M83 ; extruder relative mode
M104 S230 ; set extruder temp
M140 S85 ; set bed temp
M190 S85 ; wait for bed temp
M109 S230 ; wait for extruder temp
G28 W ; home all without mesh bed level
G80 ; mesh bed leveling
G1 Y-3.0 F1000.0 ; go outside print area
G92 E0.0
G1 X60.0 E9.0 F1000.0 ; intro line
M73 Q0 S75
M73 P0 R74
G1 X100.0 E12.5 F1000.0 ; intro line
G92 E0.0
M221 S95

; Don't change E values below. Excessive value can damage the printer.

M907 E538 ; set extruder motor current
G21 ; set units to millimeters
G90 ; use absolute coordinates
M83 ; use relative distances for extrusion
M900 K0.08 ; Filament gcode LA 1.5
M900 K45 ; Filament gcode LA 1.0
;BEFORE_LAYER_CHANGE
G92 E0.0
;0.2


G1 E-1.40000 F2100.00000
G1 Z0.200 F10800.000
;AFTER_LAYER_CHANGE
;0.2
G1 Z0.400
G1 X98.498 Y29.053
G1 Z0.200
G1 E1.40000 F2100.00000
M204 S1000
G1 F1200.000
G1 X98.784 Y28.420 E0.02178
G1 X99.238 Y27.900 E0.02166
G1 X99.822 Y27.531 E0.02166
G1 X100.492 Y27.346 E0.02178
G1 X137.221 Y22.928 E1.15991
G1 X148.020 Y22.918 E0.33860
G1 X148.918 Y23.096 E0.02872
G1 X149.680 Y23.597 E0.02860
G1 X150.197 Y24.349 E0.02860
G1 X150.392 Y25.244 E0.02872
G1 X151.893 Y100.278 E2.35309
G1 X151.593 Y180.308 E2.50930
G1 X151.502 Y180.947 E0.02024
G1 X151.226 Y181.563 E0.02119
G1 X150.791 Y182.075 E0.02107
G1 X150.230 Y182.445 E0.02107
G1 X149.587 Y182.643 E0.02107
G1 X112.945 Y187.065 E1.15725
G1 X101.869 Y187.082 E0.34727
G1 X101.234 Y186.992 E0.02012
G1 X100.562 Y186.681 E0.02319
G1 X100.017 Y186.176 E0.02331
G1 X99.654 Y185.527 E0.02331
G1 X99.509 Y184.801 E0.02319
G1 X98.107 Y109.746 E2.35373
G1 X98.407 Y29.692 E2.51003
G1 X98.490 Y29.113 E0.01836
; printing object griffstück_unten_v0.0.2.stl id:1 copy 0
G1 F8640.000
G1 X98.784 Y28.420 E-0.17372
G1 X99.238 Y27.900 E-0.15950
G1 X99.822 Y27.531 E-0.15950
G1 X100.492 Y27.346 E-0.16037
G1 X103.402 Y26.996 E-0.67690
G1 E-0.07000 F2100.00000
G1 Z0.400 F10800.000
G1 X138.553 Y67.403
G1 Z0.200
G1 E1.40000 F2100.00000
G1 F1200.000
G1 X138.553 Y100.622 E1.04157
G1 X138.728 Y100.797 E0.00776
G1 X138.109 Y101.508 E0.02957
G1 X136.732 Y101.508 E0.04317
G1 X136.729 Y100.688 E0.02571
G1 X137.018 Y100.468 E0.01139
G1 X137.507 Y99.925 E0.02292
G1 X137.874 Y99.290 E0.02299
G1 X138.148 Y98.490 E0.02653
G1 X138.227 Y97.738 E0.02370
G1 X138.227 Y26.082 E2.24673
G1 X138.553 Y26.082 E0.01022
G1 X138.553 Y67.343 E1.29370
G1 F8640.000
G1 X138.553 Y73.103 E-1.33000
G1 E-0.07000 F2100.00000
G1 Z0.400 F10800.000
G1 X138.291 Y174.984
G1 Z0.200
G1 E1.40000 F2100.00000
G1 F1200.000
G1 X138.291 Y176.082 E0.03442
G1 X139.496 Y176.082 E0.03778
G1 X137.307 Y179.508 E0.12748
G1 X137.024 Y179.508 E0.00885
G1 X136.969 Y168.048 E0.35930
G1 X138.291 Y168.072 E0.04145
G1 X138.291 Y174.924 E0.21486
G1 X138.668 Y174.924 F10800.000
G1 F1200.000
G1 X138.668 Y175.705 E0.02447
G1 X139.879 Y175.705 E0.03798
G1 X139.880 Y176.181 E0.01495
G1 X137.513 Y179.885 E0.13780
G1 X136.649 Y179.885 E0.02711
G1 X136.607 Y168.863 E0.34558
G1 X136.570 Y166.876 E0.06232
G1 X136.540 Y150.977 E0.49851
G1 X136.351 Y100.501 E1.58265
G1 X136.762 Y100.189 E0.01617
G1 X137.201 Y99.702 E0.02055
G1 X137.529 Y99.133 E0.02060
G1 X137.778 Y98.408 E0.02405
G1 X137.850 Y97.718 E0.02174
G1 X137.850 Y25.705 E2.25793
G1 X138.930 Y25.705 E0.03386
G1 X138.930 Y100.466 E2.34407
G1 X139.244 Y100.779 E0.01391
G1 X138.280 Y101.885 E0.04601
G1 X136.918 Y101.885 E0.04271
G1 X136.918 Y150.795 E1.53354
G1 X136.949 Y167.671 E0.52913
G1 X138.668 Y167.701 E0.05392
G1 X138.668 Y174.864 E0.22460
G1 X138.338 Y175.150 F10800.000
G1 F8640.000
G1 X138.668 Y175.705 E-0.19408
G1 X139.879 Y175.705 E-0.27971
G1 X139.880 Y176.181 E-0.11007
G1 X138.140 Y178.904 E-0.74613
G1 E-0.07000 F2100.00000
G1 Z0.400 F10800.000
G1 X138.715 Y176.195
G1 Z0.200
G1 E1.40000 F2100.00000
G1 F1200.000
G1 X138.943 Y176.422 E0.01052
G1 X138.726 Y176.762 E0.01318
G1 X137.287 Y175.323 E0.06657
G1 X137.284 Y174.764 E0.01829
G1 X138.008 Y175.488 E0.03349
G1 X138.008 Y174.931 E0.01821
G1 X137.282 Y174.205 E0.03362
G1 X137.279 Y173.646 E0.01829
G1 X138.008 Y174.375 E0.03374
G1 X138.008 Y173.818 E0.01821
G1 X137.276 Y173.086 E0.03387
G1 X137.274 Y172.527 E0.01829
G1 X138.008 Y173.262 E0.03399
G1 X138.008 Y172.706 E0.01821
G1 X137.271 Y171.968 E0.03411
G1 X137.268 Y171.409 E0.01829
G1 X138.008 Y172.149 E0.03424
G1 X138.008 Y171.593 E0.01821
G1 X137.266 Y170.850 E0.03436
G1 X137.263 Y170.291 E0.01829
G1 X138.008 Y171.036 E0.03449
G1 X138.008 Y170.480 E0.01821
G1 X137.260 Y169.732 E0.03461
G1 X137.257 Y169.173 E0.01829
G1 X138.008 Y169.923 E0.03474
G1 X138.008 Y169.367 E0.01821
G1 X137.255 Y168.613 E0.03486
G1 X137.253 Y168.336 E0.00907
G1 X137.539 Y168.341 E0.00934
G1 X138.178 Y168.980 E0.02956
G1 F8640.000
G1 X137.539 Y168.341 E-0.20862
G1 X137.253 Y168.336 E-0.06595
G1 X137.255 Y168.613 E-0.06401
G1 X138.008 Y169.367 E-0.24602
G1 X138.008 Y169.923 E-0.12849
G1 X137.257 Y169.173 E-0.24515
G1 X137.260 Y169.732 E-0.12911
G1 X138.003 Y170.475 E-0.24266
G1 E-0.07000 F2100.00000
G1 Z0.400 F10800.000
G1 X138.632 Y177.224
G1 Z0.200
G1 E1.40000 F2100.00000
G1 F1200.000
G1 X137.290 Y175.882 E0.06210
G1 X137.292 Y176.441 E0.01829
G1 X138.292 Y177.441 E0.04625
G1 X138.075 Y177.780 E0.01318
G1 X137.295 Y177.000 E0.03609
G1 X137.298 Y177.560 E0.01829
G1 X137.858 Y178.120 E0.02592
G1 X137.641 Y178.459 E0.01318
G1 X137.300 Y178.119 E0.01576
G1 X137.303 Y178.678 E0.01829
G1 X137.547 Y178.922 E0.01128
G1 F8640.000
G1 X137.303 Y178.678 E-0.07963
G1 X137.300 Y178.119 E-0.12911
G1 X137.641 Y178.459 E-0.11123
G1 X137.858 Y178.120 E-0.09303
G1 X137.298 Y177.560 E-0.18295
G1 X137.295 Y177.000 E-0.12911
G1 X138.075 Y177.780 E-0.25468
G1 X138.292 Y177.441 E-0.09303
G1 X137.504 Y176.653 E-0.25724
G1 E-0.07000 F2100.00000
G1 Z0.400 F10800.000
G1 X136.704 Y137.824
G1 Z0.200
G1 E1.40000 F2100.00000
G1 F1200.000
G1 X136.637 Y101.696 E0.28638
G1 F8640.000
G1 X136.648 Y107.456 E-1.33000
G1 E-0.07000 F2100.00000
G1 Z0.400 F10800.000
G1 X137.700 Y101.395
G1 Z0.200
G1 E1.40000 F2100.00000
G1 F1200.000
G1 X137.081 Y100.776 E0.03066
G1 X137.210 Y100.678 E0.00568
G1 X137.385 Y100.484 E0.00914
G1 X138.048 Y101.147 E0.03284
G1 X138.325 Y100.829 E0.01478
G1 X137.667 Y100.170 E0.03260
G1 X137.738 Y100.092 E0.00368
G1 X137.901 Y99.809 E0.01147
G1 X138.440 Y100.348 E0.02668
G1 F8640.000
G1 X137.901 Y99.809 E-0.17592
G1 X137.738 Y100.092 E-0.07562
G1 X137.667 Y100.170 E-0.02424
G1 X138.325 Y100.829 E-0.21493
G1 X138.048 Y101.147 E-0.09748
G1 X137.385 Y100.484 E-0.21651
G1 X137.210 Y100.678 E-0.06024
G1 X137.081 Y100.776 E-0.03745
G1 X137.700 Y101.395 E-0.20215
G1 E-0.29545 F2100.00000
G1 Z0.400 F10800.000
G1 X138.215 Y99.337
G1 Z0.200
G1 E1.40000 F2100.00000
G1 F1200.000
G1 X138.241 Y99.183 E0.00333
G1 X138.267 Y99.029 E0.00279
G1 X138.292 Y98.875 E0.00226
G1 X138.318 Y98.720 E0.00172
G1 X138.344 Y98.566 E0.00119
G1 F8640.000
G1 X138.318 Y98.720 E-0.03607
G1 E-1.36393 F2100.00000
G1 Z0.400 F10800.000
G1 X147.229 Y68.772
G1 Z0.200
G1 E1.40000 F2100.00000
G1 F1200.000
G1 X147.229 Y97.738 E0.90822
M73 Q1 S74
G1 X147.308 Y98.490 E0.02370
G1 X147.582 Y99.290 E0.02653
G1 X147.949 Y99.925 E0.02299
G1 X148.438 Y100.468 E0.02292
G1 X148.727 Y100.688 E0.01139
M73 P1 R73
G1 X148.724 Y101.508 E0.02571
G1 X147.347 Y101.508 E0.04317
G1 X146.726 Y100.795 E0.02964
G1 X146.903 Y100.615 E0.00790
G1 X146.903 Y26.082 E2.33694
G1 X147.229 Y26.082 E0.01022
G1 X147.229 Y68.712 E1.33662
G1 F8640.000
G1 X147.229 Y74.472 E-1.33000
G1 E-0.07000 F2100.00000
G1 Z0.400 F10800.000
G1 X147.165 Y174.054
G1 Z0.200
G1 E1.40000 F2100.00000
G1 F1200.000
G1 X147.165 Y168.072 E0.18757
G1 X148.487 Y168.048 E0.04145
G1 X148.432 Y179.508 E0.35930
G1 X148.149 Y179.508 E0.00885
G1 X145.960 Y176.082 E0.12748
G1 X147.165 Y176.082 E0.03778
G1 X147.165 Y174.114 E0.06171
G1 X146.788 Y174.114 F10800.000
G1 F1200.000
G1 X146.788 Y167.701 E0.20107
G1 X148.507 Y167.671 E0.05392
G1 X148.538 Y150.795 E0.52913
G1 X148.538 Y101.885 E1.53354
G1 X147.176 Y101.885 E0.04271
G1 X146.213 Y100.780 E0.04596
G1 X146.526 Y100.461 E0.01401
G1 X146.526 Y25.705 E2.34393
G1 X147.606 Y25.705 E0.03386
G1 X147.606 Y97.718 E2.25793
G1 X147.678 Y98.408 E0.02174
G1 X147.927 Y99.133 E0.02405
G1 X148.255 Y99.702 E0.02060
G1 X148.694 Y100.189 E0.02055
G1 X149.105 Y100.501 E0.01617
G1 X148.916 Y150.977 E1.58265
G1 X148.886 Y166.876 E0.49851
G1 X148.849 Y168.863 E0.06232
G1 X148.807 Y179.885 E0.34558
G1 X147.943 Y179.885 E0.02711
G1 X145.576 Y176.181 E0.13780
G1 X145.577 Y175.705 E0.01495
G1 X146.788 Y175.705 E0.03798
G1 X146.788 Y174.174 E0.04800
G1 X147.169 Y173.993 F10800.000
G1 F8640.000
G1 X146.788 Y168.414 E-1.33000
G1 E-0.07000 F2100.00000
G1 Z0.400 F10800.000
G1 X146.790 Y177.171
G1 Z0.200
G1 E1.40000 F2100.00000
G1 F1200.000
G1 X148.153 Y178.533 E0.06173
G1 X148.155 Y177.990 E0.01740
G1 X146.529 Y176.365 E0.07367
G1 X147.074 Y176.365 E0.01746
G1 X148.157 Y177.447 E0.04907
G1 X148.159 Y176.905 E0.01740
G1 X147.448 Y176.194 E0.03221
G1 X147.448 Y175.649 E0.01746
G1 X148.161 Y176.362 E0.03231
G1 X148.163 Y175.819 E0.01740
G1 X147.448 Y175.104 E0.03240
G1 X147.448 Y174.559 E0.01746
G1 X148.165 Y175.276 E0.03249
G1 X148.167 Y174.733 E0.01740
G1 X147.448 Y174.014 E0.03258
G1 X147.448 Y173.469 E0.01746
G1 X148.169 Y174.190 E0.03268
G1 X148.171 Y173.647 E0.01740
G1 X147.448 Y172.924 E0.03277
G1 X147.448 Y172.379 E0.01746
G1 X148.173 Y173.104 E0.03286
G1 X148.175 Y172.561 E0.01740
G1 X147.448 Y171.834 E0.03295
G1 X147.448 Y171.289 E0.01746
G1 X148.177 Y172.018 E0.03305
G1 X148.179 Y171.475 E0.01740
G1 X147.448 Y170.744 E0.03314
G1 X147.448 Y170.199 E0.01746
G1 X148.181 Y170.932 E0.03323
G1 X148.183 Y170.389 E0.01740
G1 X147.448 Y169.654 E0.03332
G1 X147.448 Y169.109 E0.01746
G1 X148.185 Y169.846 E0.03342
G1 X148.187 Y169.303 E0.01740
G1 X147.448 Y168.564 E0.03351
G1 X147.448 Y168.349 E0.00687
G1 X147.773 Y168.344 E0.01041
G1 X148.358 Y168.930 E0.02654
G1 F8640.000
G1 X147.773 Y168.344 E-0.19128
G1 X147.448 Y168.349 E-0.07500
G1 X147.448 Y168.564 E-0.04953
G1 X148.187 Y169.303 E-0.24146
G1 X148.185 Y169.846 E-0.12537
G1 X147.448 Y169.109 E-0.24080
G1 X147.448 Y169.654 E-0.12584
G1 X148.183 Y170.389 E-0.24013
G1 X148.183 Y170.565 E-0.04059
G1 E-0.07000 F2100.00000
G1 Z0.400 F10800.000
G1 X148.752 Y137.824
G1 Z0.200
G1 E1.40000 F2100.00000
G1 F1200.000
G1 X148.774 Y125.781 E0.09546
G1 X148.797 Y113.739 E0.14045
G1 X148.819 Y101.696 E0.18544
G1 X148.612 Y101.281 F10800.000
G1 F1200.000
G1 X147.186 Y99.855 E0.06423
G1 X147.186 Y100.397 E0.01724
G1 X148.184 Y101.395 E0.04494
G1 F8640.000
G1 X147.186 Y100.397 E-0.32586
G1 X147.186 Y99.855 E-0.12505
G1 X148.612 Y101.281 E-0.46574
G1 E-0.48335 F2100.00000
G1 Z0.400 F10800.000
G1 X147.241 Y99.337
G1 Z0.200
G1 E1.40000 F2100.00000
G1 F1200.000
G1 X147.215 Y99.183 E0.00333
G1 X147.189 Y99.029 E0.00279
G1 X147.164 Y98.875 E0.00226
G1 X147.138 Y98.720 E0.00172
G1 X147.113 Y98.566 E0.00119
G1 F8640.000
G1 X147.138 Y98.720 E-0.03607
G1 E-1.36393 F2100.00000
G1 Z0.400 F10800.000
G1 X139.338 Y153.170
G1 Z0.200
G1 E1.40000 F2100.00000
G1 F1200.000
G1 X139.338 Y152.505 E0.02086
G1 X140.079 Y152.505 E0.02324
G1 X140.079 Y153.585 E0.03386
G1 X139.338 Y153.585 E0.02324
G1 X139.338 Y153.230 E0.01112
G1 X139.594 Y152.863 F10800.000
G1 F8640.000
G1 X139.338 Y152.505 E-0.16748
G1 X140.079 Y152.505 E-0.17115
G1 X140.079 Y153.585 E-0.24938
G1 X139.338 Y153.585 E-0.17115
G1 X139.338 Y153.230 E-0.08190
G1 E-0.55894 F2100.00000
G1 Z0.400 F10800.000
G1 X145.377 Y152.794
G1 Z0.200
G1 E1.40000 F2100.00000
G1 F1200.000
G1 X145.377 Y152.505 E0.00907
G1 X146.118 Y152.505 E0.02324
G1 X146.118 Y153.585 E0.03386
G1 X145.377 Y153.585 E0.02324
G1 X145.377 Y152.854 E0.02292
G1 X145.583 Y152.592 F10800.000
G1 F8640.000
G1 X145.377 Y152.505 E-0.08062
G1 X146.118 Y152.505 E-0.17115
G1 X146.118 Y153.585 E-0.24938
G1 X145.377 Y153.585 E-0.17115
G1 X145.377 Y152.854 E-0.16876
G1 E-0.55894 F2100.00000
G1 Z0.400 F10800.000
G1 X140.453 Y130.036
G1 Z0.200
G1 E1.40000 F2100.00000
G1 F1200.000
G1 X140.453 Y130.208 E0.00539
G1 X139.715 Y130.208 E0.02314
G1 X139.715 Y129.382 E0.02589
G1 X140.453 Y129.382 E0.02314
G1 X140.453 Y129.976 E0.01863
G1 X140.830 Y129.976 F10800.000
G1 F1200.000
G1 X140.830 Y130.585 E0.01909
G1 X139.338 Y130.585 E0.04679
G1 X139.338 Y129.005 E0.04954
G1 X140.830 Y129.005 E0.04679
G1 X140.830 Y129.916 E0.02857
G1 X140.568 Y130.278 F10800.000
G1 F8640.000
G1 X140.830 Y130.585 E-0.15445
G1 X139.338 Y130.585 E-0.34454
G1 X139.338 Y129.005 E-0.36483
G1 X140.830 Y129.005 E-0.34454
G1 X140.830 Y129.532 E-0.12163
G1 E-0.07000 F2100.00000
G1 Z0.400 F10800.000
G1 X145.741 Y129.550
G1 Z0.200
G1 E1.40000 F2100.00000
G1 F1200.000
G1 X145.741 Y130.208 E0.02062
G1 X145.003 Y130.208 E0.02314
G1 X145.003 Y129.382 E0.02589
G1 X145.741 Y129.382 E0.02314
G1 X145.741 Y129.490 E0.00340
G1 X146.118 Y129.490 F10800.000
G1 F1200.000
G1 X146.118 Y130.585 E0.03432
G1 X144.626 Y130.585 E0.04679
G1 X144.626 Y129.005 E0.04954
G1 X146.118 Y129.005 E0.04679
G1 X146.118 Y129.430 E0.01334
G1 X145.883 Y129.814 F10800.000
G1 F8640.000
G1 X146.118 Y130.585 E-0.26661
G1 X144.626 Y130.585 E-0.34454
G1 X144.626 Y129.005 E-0.36483
G1 X146.118 Y129.005 E-0.34454
G1 X146.118 Y129.046 E-0.00947
G1 E-0.07000 F2100.00000
G1 Z0.400 F10800.000
G1 X139.915 Y105.680
G1 Z0.200
G1 E1.40000 F2100.00000
G1 F1200.000
G1 X139.915 Y105.522 E0.00494
G1 X141.003 Y104.790 E0.04113
G1 X141.003 Y106.508 E0.05387
G1 X139.915 Y106.508 E0.03411
G1 X139.915 Y105.740 E0.02408
G1 X139.538 Y105.740 F10800.000
G1 F1200.000
G1 X139.538 Y105.321 E0.01312
G1 X141.380 Y104.081 E0.06963
G1 X141.380 Y106.885 E0.08791
G1 X139.538 Y106.885 E0.05776
G1 X139.538 Y105.800 E0.03402
G1 X139.798 Y105.436 F10800.000
G1 F8640.000
G1 X139.538 Y105.321 E-0.11046
G1 X141.380 Y104.081 E-0.51279
G1 X141.380 Y106.885 E-0.64738
G1 X141.123 Y106.885 E-0.05937
G1 E-0.07000 F2100.00000
G1 Z0.400 F10800.000
G1 X140.870 Y106.395
G1 Z0.200
G1 E1.40000 F2100.00000
G1 F1200.000
G1 X140.198 Y105.722 E0.03280
G1 X140.198 Y105.673 E0.00171
G1 X140.519 Y105.457 E0.01334
G1 X140.890 Y105.828 E0.01810
G1 F8640.000
G1 X140.519 Y105.457 E-0.12121
G1 X140.198 Y105.673 E-0.08933
G1 X140.198 Y105.722 E-0.01145
G1 X140.870 Y106.395 E-0.21957
G1 E-0.95844 F2100.00000
G1 Z0.400 F10800.000
G1 X145.028 Y105.177
G1 Z0.200
G1 E1.40000 F2100.00000
G1 F1200.000
G1 X145.541 Y105.522 E0.01940
G1 X145.541 Y106.508 E0.03090
G1 X144.453 Y106.508 E0.03411
G1 X144.453 Y104.790 E0.05387
G1 X144.978 Y105.143 E0.01985
G1 X145.189 Y104.830 F10800.000
G1 F1200.000
G1 X145.918 Y105.321 E0.02757
G1 X145.918 Y106.885 E0.04902
G1 X144.076 Y106.885 E0.05776
G1 X144.076 Y104.081 E0.08791
G1 X145.139 Y104.797 E0.04018
G1 X145.376 Y105.184 F10800.000
G1 F8640.000
G1 X145.918 Y105.321 E-0.21689
G1 X145.918 Y106.885 E-0.36099
G1 X144.076 Y106.885 E-0.42536
G1 X144.076 Y105.470 E-0.32676
G1 E-0.07000 F2100.00000
G1 Z0.400 F10800.000
G1 X145.399 Y106.395
G1 Z0.200
G1 E1.40000 F2100.00000
G1 F1200.000
G1 X144.736 Y105.732 E0.03198
G1 X144.736 Y105.321 E0.01402
G1 X145.254 Y105.670 E0.02132
G1 X145.428 Y105.844 E0.00838
; stop printing object griffstück_unten_v0.0.2.stl id:1 copy 0
; printing object griffstück_oben_v0.0.2.stl id:0 copy 0
G1 F8640.000
G1 X145.254 Y105.670 E-0.05670
G1 X144.736 Y105.321 E-0.14432
