; generated by PrusaSlicer 2.2.0+linux-x64 on 2021-06-21 at 18:44:41 UTC

; 

; external perimeters extrusion width = 0.45mm
; perimeters extrusion width = 0.45mm
; infill extrusion width = 0.45mm
; solid infill extrusion width = 0.45mm
; top infill extrusion width = 0.40mm
; first layer extrusion width = 0.42mm

M73 P0 R74
M73 Q0 S75
M201 X1000 Y1000 Z200 E5000 ; sets maximum accelerations, mm/sec^2
M203 X200 Y200 Z12 E120 ; sets maximum feedrates, mm/sec
M204 P1250 R1250 T1250 ; sets acceleration (P, T) and retract acceleration (R), mm/sec^2
M205 X8.00 Y8.00 Z0.40 E4.50 ; sets the jerk limits, mm/sec
M205 S0 T0 ; sets the minimum extruding and travel feed rate, mm/sec
M107
M862.3 P "MK3S" ; printer model check
M862.1 P0.4 ; nozzle diameter check
M115 U3.9.3 ; tell printer latest fw version
G90 ; use absolute coordinates
M83 ; extruder relative mode
M104 S230 ; set extruder temp
M140 S85 ; set bed temp
M190 S85 ; wait for bed temp
M109 S230 ; wait for extruder temp
G28 W ; home all without mesh bed level
G80 ; mesh bed leveling
G1 Y-3.0 F1000.0 ; go outside print area
G92 E0.0
G1 X60.0 E9.0 F1000.0 ; intro line
M73 Q0 S75
M73 P0 R74
G1 X100.0 E12.5 F1000.0 ; intro line
G92 E0.0
M221 S95

; Don't change E values below. Excessive value can damage the printer.

M907 E538 ; set extruder motor current
G21 ; set units to millimeters
G90 ; use absolute coordinates
M83 ; use relative distances for extrusion
M900 K0.08 ; Filament gcode LA 1.5
M900 K45 ; Filament gcode LA 1.0
;BEFORE_LAYER_CHANGE
G92 E0.0
;0.2


G1 E-1.40000 F2100.00000
G1 Z0.200 F10800.000
;AFTER_LAYER_CHANGE
;0.2
G1 Z0.400
G1 X105.764 Y25.974
G1 Z0.200
G1 E1.40000 F2100.00000
M204 S1000
G1 F1200.000
G1 X106.417 Y25.574 E0.02402
G1 X107.164 Y25.403 E0.02402
G1 X129.673 Y24.848 E0.70599
G1 X142.688 Y24.848 E0.40808
G1 X143.590 Y25.027 E0.02884
G1 X144.359 Y25.538 E0.02896
G1 X144.876 Y26.304 E0.02896
G1 X145.061 Y27.205 E0.02884
G1 X145.361 Y107.243 E2.50955
G1 X143.908 Y182.726 E2.36718
G1 X143.628 Y183.439 E0.02402
G1 X143.138 Y184.024 E0.02390
G1 X142.485 Y184.425 E0.02402
G1 X141.743 Y184.597 E0.02390
G1 X119.127 Y185.152 E0.70933
G1 X108.504 Y185.152 E0.33306
G1 X108.013 Y185.098 E0.01550
G1 X107.290 Y184.812 E0.02437
G1 X106.699 Y184.308 E0.02437
G1 X106.301 Y183.639 E0.02437
G1 X106.141 Y182.879 E0.02437
G1 X104.639 Y107.819 E2.35393
G1 X104.939 Y27.766 E2.51001
G1 X104.993 Y27.271 E0.01562
G1 X105.272 Y26.562 E0.02390
G1 X105.725 Y26.020 E0.02214
; printing object griffstück_oben_v0.0.3.stl id:1 copy 0
G1 F8640.000
G1 X106.417 Y25.574 E-0.19007
G1 X107.164 Y25.403 E-0.17689
G1 X111.333 Y25.300 E-0.96304
G1 E-0.07000 F2100.00000
G1 Z0.400 F10800.000
G1 X138.194 Y101.012
G1 Z0.200
G1 E1.40000 F2100.00000
G1 F1200.000
G1 X138.909 Y101.012 E0.02243
G1 X138.909 Y102.065 E0.03301
G1 X137.926 Y102.727 E0.03719
G1 X137.935 Y101.012 E0.05378
G1 X138.134 Y101.012 E0.00624
G1 F8640.000
G1 X138.909 Y101.012 E-0.17906
G1 X138.909 Y102.065 E-0.24312
G1 X137.926 Y102.727 E-0.27388
G1 X137.935 Y101.012 E-0.39609
G1 X138.134 Y101.012 E-0.04598
G1 E-0.26187 F2100.00000
G1 Z0.400 F10800.000
G1 X134.454 Y101.299
G1 Z0.200
G1 E1.40000 F2100.00000
G1 F1200.000
G1 X134.468 Y102.727 E0.04480
G1 X133.484 Y102.065 E0.03719
G1 X133.484 Y101.012 E0.03301
G1 X134.458 Y101.012 E0.03056
G1 X134.455 Y101.239 E0.00711
G1 F8640.000
G1 X134.468 Y102.727 E-0.34376
G1 X133.484 Y102.065 E-0.27388
G1 X133.484 Y101.012 E-0.24312
G1 X134.458 Y101.012 E-0.22504
G1 X134.455 Y101.239 E-0.05234
G1 E-0.26186 F2100.00000
G1 Z0.400 F10800.000
G1 X132.022 Y141.417
G1 Z0.200
G1 E1.40000 F2100.00000
G1 F1200.000
G1 X132.022 Y181.438 E1.25482
G1 X131.596 Y181.438 E0.01335
G1 X131.596 Y109.852 E2.24452
G1 X131.546 Y109.113 E0.02323
G1 X131.303 Y108.303 E0.02653
G1 X130.961 Y107.654 E0.02300
G1 X130.493 Y107.092 E0.02293
G1 X130.197 Y106.851 E0.01196
G1 X130.200 Y106.012 E0.02629
G1 X131.577 Y106.012 E0.04317
G1 X132.197 Y106.723 E0.02957
G1 X132.022 Y106.898 E0.00776
G1 X132.022 Y141.357 E1.08046
G1 F8640.000
G1 X132.022 Y147.117 E-1.33000
G1 E-0.07000 F2100.00000
G1 Z0.400 F10800.000
G1 X140.371 Y142.790
G1 Z0.200
G1 E1.40000 F2100.00000
G1 F1200.000
G1 X140.371 Y106.904 E1.12517
G1 X140.195 Y106.725 E0.00790
G1 X140.816 Y106.012 E0.02964
G1 X142.193 Y106.012 E0.04317
G1 X142.196 Y106.851 E0.02629
G1 X141.901 Y107.092 E0.01196
G1 X141.432 Y107.654 E0.02293
G1 X141.090 Y108.303 E0.02300
G1 X140.847 Y109.113 E0.02653
G1 X140.797 Y109.852 E0.02323
G1 X140.797 Y181.438 E2.24452
G1 X140.371 Y181.438 E0.01335
G1 X140.371 Y142.850 E1.20989
G1 F8640.000
G1 X140.371 Y137.090 E-1.33000
G1 E-0.07000 F2100.00000
G1 Z0.400 F10800.000
G1 X135.942 Y88.012
G1 Z0.200
G1 E1.40000 F2100.00000
G1 F1200.000
G1 X136.551 Y88.012 E0.01909
G1 X136.927 Y89.893 E0.06014
G1 X142.132 Y89.903 E0.16320
G1 X136.929 Y89.903 E0.16314
G1 X137.236 Y91.438 E0.04909
G1 X135.157 Y91.438 E0.06521
G1 X135.464 Y89.903 E0.04909
G1 X130.261 Y89.903 E0.16314
G1 X135.466 Y89.893 E0.16320
G1 X135.842 Y88.012 E0.06014
G1 X135.882 Y88.012 E0.00127
G1 F8640.000
G1 X136.551 Y88.012 E-0.15445
G1 X136.927 Y89.893 E-0.44287
G1 X140.101 Y89.899 E-0.73267
G1 E-0.07000 F2100.00000
G1 Z0.400 F10800.000
G1 X135.004 Y90.280
G1 Z0.200
G1 E1.40000 F2100.00000
G1 F1200.000
G1 X134.697 Y91.815 E0.04909
G1 X137.696 Y91.815 E0.09406
G1 X137.389 Y90.280 E0.04909
G1 X142.007 Y90.280 E0.14477
G1 X142.007 Y100.959 E0.33485
G1 X139.287 Y100.959 E0.08528
G1 X139.287 Y100.635 E0.01016
G1 X137.552 Y100.635 E0.05439
G1 X137.557 Y100.959 E0.01016
G1 X134.836 Y100.959 E0.08531
G1 X134.841 Y100.635 E0.01016
G1 X133.107 Y100.635 E0.05439
G1 X133.107 Y100.959 E0.01016
G1 X130.387 Y100.959 E0.08528
G1 X130.387 Y90.280 E0.33485
G1 X134.944 Y90.280 E0.14289
G1 X135.391 Y90.178 F10800.000
G1 X134.944 Y89.516
G1 F1200.000
G1 X130.387 Y89.516 E0.14289
G1 X130.387 Y78.096 E0.35805
G1 X133.107 Y78.096 E0.08528
G1 X133.107 Y78.315 E0.00686
G1 X134.087 Y78.315 E0.03076
G1 X134.085 Y78.096 E0.00686
G1 X138.308 Y78.096 E0.13242
G1 X138.306 Y78.315 E0.00686
G1 X139.287 Y78.315 E0.03076
G1 X139.287 Y78.096 E0.00686
G1 X142.007 Y78.096 E0.08528
G1 X142.007 Y89.516 E0.35805
G1 X137.237 Y89.516 E0.14956
G1 X136.860 Y87.635 E0.06014
G1 X135.533 Y87.635 E0.04163
G1 X135.156 Y89.516 E0.06014
G1 X135.004 Y89.516 E0.00479
G1 X134.903 Y89.914 F10800.000
G1 F8640.000
G1 X130.387 Y89.516 E-1.06612
G1 X130.387 Y88.373 E-0.26388
G1 E-0.07000 F2100.00000
G1 Z0.400 F10800.000
G1 X131.660 Y77.639
G1 Z0.200
G1 E1.40000 F2100.00000
G1 F1200.000
G1 X133.484 Y77.639 E0.05717
G1 X133.484 Y77.512 E0.00399
G1 X133.669 Y77.512 E0.00581
G1 X133.661 Y77.639 E0.00400
G1 X138.732 Y77.639 E0.15900
G1 X138.724 Y77.512 E0.00400
G1 X138.909 Y77.512 E0.00581
G1 X138.909 Y77.639 E0.00399
G1 X142.086 Y77.639 E0.09961
G1 X142.087 Y77.719 E0.00250
G1 X138.909 Y77.719 E0.09962
G1 X138.909 Y77.938 E0.00686
G1 X138.687 Y77.938 E0.00697
G1 X138.690 Y77.719 E0.00686
G1 X133.703 Y77.719 E0.15635
G1 X133.706 Y77.938 E0.00686
G1 X133.484 Y77.938 E0.00697
G1 X133.484 Y77.719 E0.00686
G1 X130.306 Y77.719 E0.09962
G1 X130.307 Y77.639 E0.00250
G1 X131.600 Y77.639 E0.04056
G1 F8640.000
G1 X133.484 Y77.639 E-0.43489
G1 X133.484 Y77.512 E-0.02941
G1 X133.669 Y77.512 E-0.04279
G1 X133.661 Y77.639 E-0.02947
G1 X137.097 Y77.639 E-0.79344
G1 E-0.07000 F2100.00000
G1 Z0.400 F10800.000
G1 X141.966 Y45.592
G1 Z0.200
G1 E1.40000 F2100.00000
G1 F1200.000
G1 X142.029 Y62.438 E0.52821
G1 X140.634 Y62.438 E0.04376
G1 X140.634 Y31.438 E0.97198
G1 X139.429 Y31.438 E0.03778
G1 X141.618 Y28.012 E0.12748
G1 X141.900 Y28.012 E0.00885
G1 X141.966 Y45.532 E0.54931
G1 F8640.000
G1 X141.988 Y51.291 E-1.33000
G1 E-0.07000 F2100.00000
G1 Z0.400 F10800.000
G1 X131.759 Y45.369
G1 Z0.200
G1 E1.40000 F2100.00000
G1 F1200.000
G1 X131.759 Y62.438 E0.53519
G1 X130.364 Y62.438 E0.04376
G1 X130.493 Y28.012 E1.07941
G1 X130.775 Y28.012 E0.00884
G1 X132.964 Y31.438 E0.12748
M73 Q1 S74
G1 X131.759 Y31.438 E0.03778
G1 X131.759 Y45.309 E0.43491
M73 P1 R73
G1 X132.137 Y45.309 F10800.000
G1 F1200.000
G1 X132.137 Y54.135 E0.27674
G1 X133.348 Y54.135 E0.03798
G1 X133.348 Y54.815 E0.02132
G1 X132.137 Y54.815 E0.03798
G1 X132.137 Y62.815 E0.25083
G1 X130.387 Y62.815 E0.05487
G1 X130.387 Y77.262 E0.45299
G1 X133.107 Y77.262 E0.08528
G1 X133.107 Y77.135 E0.00399
G1 X134.070 Y77.135 E0.03021
G1 X134.062 Y77.262 E0.00400
G1 X138.331 Y77.262 E0.13384
G1 X138.323 Y77.135 E0.00400
G1 X139.287 Y77.135 E0.03021
G1 X139.287 Y77.262 E0.00399
G1 X142.007 Y77.262 E0.08528
G1 X142.007 Y62.815 E0.45299
G1 X140.257 Y62.815 E0.05487
G1 X140.257 Y54.815 E0.25083
G1 X139.045 Y54.815 E0.03798
G1 X139.045 Y54.135 E0.02132
G1 X140.257 Y54.135 E0.03798
G1 X140.257 Y31.815 E0.69983
G1 X139.045 Y31.815 E0.03798
G1 X139.045 Y31.338 E0.01495
G1 X141.411 Y27.635 E0.13780
G1 X142.276 Y27.635 E0.02711
G1 X142.574 Y107.029 E2.48936
G1 X142.167 Y107.361 E0.01647
G1 X141.747 Y107.865 E0.02056
G1 X141.441 Y108.446 E0.02061
G1 X141.220 Y109.181 E0.02404
G1 X141.174 Y109.865 E0.02150
G1 X141.174 Y181.815 E2.25595
G1 X139.994 Y181.815 E0.03700
G1 X139.994 Y107.059 E2.34393
G1 X139.681 Y106.740 E0.01401
G1 X140.644 Y105.635 E0.04596
G1 X142.007 Y105.635 E0.04271
G1 X142.007 Y101.565 E0.12762
G1 X139.287 Y101.565 E0.08528
G1 X139.287 Y102.266 E0.02198
G1 X137.547 Y103.437 E0.06577
G1 X137.552 Y101.565 E0.05871
G1 X134.841 Y101.565 E0.08498
G1 X134.847 Y103.437 E0.05871
G1 X133.107 Y102.266 E0.06577
G1 X133.107 Y101.565 E0.02198
G1 X130.387 Y101.565 E0.08528
G1 X130.387 Y105.635 E0.12762
G1 X131.749 Y105.635 E0.04271
G1 X132.713 Y106.741 E0.04601
G1 X132.399 Y107.054 E0.01391
G1 X132.399 Y181.815 E2.34407
G1 X131.219 Y181.815 E0.03700
G1 X131.219 Y109.865 E2.25595
G1 X131.173 Y109.181 E0.02150
G1 X130.952 Y108.446 E0.02404
G1 X130.646 Y107.865 E0.02061
G1 X130.226 Y107.361 E0.02056
G1 X129.819 Y107.029 E0.01647
G1 X130.117 Y27.635 E2.48936
G1 X130.982 Y27.635 E0.02710
G1 X133.348 Y31.338 E0.13780
G1 X133.348 Y31.815 E0.01495
G1 X132.137 Y31.815 E0.03798
G1 X132.137 Y45.249 E0.42121
G1 X131.784 Y45.498 F10800.000
G1 F8640.000
G1 X132.137 Y51.009 E-1.33000
G1 E-0.07000 F2100.00000
G1 Z0.400 F10800.000
G1 X131.948 Y54.475
G1 Z0.200
G1 E1.40000 F2100.00000
G1 F1200.000
G1 X133.159 Y54.475 E0.03051
G1 F8640.000
G1 X131.948 Y54.475 E-0.27967
G1 E-1.12033 F2100.00000
G1 Z0.400 F10800.000
G1 X139.234 Y54.475
G1 Z0.200
G1 E1.40000 F2100.00000
G1 F1200.000
G1 X140.445 Y54.475 E0.03051
G1 F8640.000
G1 X139.234 Y54.475 E-0.27967
G1 E-1.12033 F2100.00000
G1 Z0.400 F10800.000
G1 X140.747 Y61.562
G1 Z0.200
G1 E1.40000 F2100.00000
G1 F1200.000
G1 X141.340 Y62.155 E0.02633
G1 X141.746 Y62.155 E0.01273
G1 X141.745 Y62.026 E0.00404
G1 X140.916 Y61.198 E0.03678
G1 X140.916 Y60.664 E0.01675
G1 X141.743 Y61.491 E0.03669
G1 X141.741 Y60.955 E0.01682
G1 X140.916 Y60.130 E0.03660
G1 X140.916 Y59.596 E0.01675
G1 X141.739 Y60.419 E0.03651
G1 X141.737 Y59.883 E0.01682
G1 X140.916 Y59.063 E0.03642
G1 X140.916 Y58.529 E0.01675
G1 X141.735 Y59.348 E0.03633
G1 X141.733 Y58.812 E0.01682
G1 X140.916 Y57.995 E0.03624
G1 X140.916 Y57.461 E0.01675
G1 X141.731 Y58.276 E0.03615
G1 X141.729 Y57.740 E0.01682
G1 X140.916 Y56.928 E0.03606
G1 X140.916 Y56.394 E0.01675
G1 X141.727 Y57.204 E0.03597
G1 X141.725 Y56.669 E0.01682
G1 X140.916 Y55.860 E0.03589
G1 X140.916 Y55.326 E0.01675
G1 X141.723 Y56.133 E0.03580
G1 X141.721 Y55.597 E0.01682
G1 X140.916 Y54.793 E0.03571
G1 X140.916 Y54.259 E0.01675
G1 X141.719 Y55.061 E0.03562
G1 X141.717 Y54.525 E0.01682
G1 X140.916 Y53.725 E0.03553
G1 X140.916 Y53.191 E0.01675
G1 X141.715 Y53.990 E0.03544
G1 X141.713 Y53.454 E0.01682
G1 X140.916 Y52.657 E0.03535
G1 X140.916 Y52.124 E0.01675
G1 X141.711 Y52.918 E0.03526
G1 X141.709 Y52.382 E0.01682
G1 X140.916 Y51.590 E0.03517
G1 X140.916 Y51.056 E0.01675
G1 X141.707 Y51.847 E0.03508
G1 X141.705 Y51.311 E0.01682
G1 X140.916 Y50.522 E0.03499
G1 X140.916 Y49.989 E0.01675
G1 X141.703 Y50.775 E0.03490
G1 X141.701 Y50.239 E0.01682
G1 X140.916 Y49.455 E0.03482
G1 X140.916 Y48.921 E0.01675
G1 X141.699 Y49.703 E0.03473
G1 X141.697 Y49.168 E0.01682
G1 X140.916 Y48.387 E0.03464
G1 X140.916 Y47.853 E0.01675
G1 X141.695 Y48.632 E0.03455
G1 X141.693 Y48.096 E0.01682
G1 X140.916 Y47.320 E0.03446
G1 X140.916 Y46.786 E0.01675
G1 X141.691 Y47.560 E0.03437
G1 X141.689 Y47.024 E0.01682
G1 X140.916 Y46.252 E0.03428
G1 X140.916 Y45.718 E0.01675
G1 X141.687 Y46.489 E0.03419
G1 X141.685 Y45.953 E0.01682
G1 X140.916 Y45.185 E0.03410
G1 X140.916 Y44.651 E0.01675
G1 X141.683 Y45.417 E0.03401
G1 X141.681 Y44.881 E0.01682
G1 X140.916 Y44.117 E0.03392
G1 X140.916 Y43.583 E0.01675
G1 X141.679 Y44.346 E0.03383
G1 X141.677 Y43.810 E0.01682
G1 X140.916 Y43.049 E0.03375
G1 X140.916 Y42.516 E0.01675
G1 X141.675 Y43.274 E0.03366
G1 X141.673 Y42.738 E0.01682
G1 X140.916 Y41.982 E0.03357
G1 X140.916 Y41.448 E0.01675
G1 X141.671 Y42.202 E0.03348
G1 X141.669 Y41.667 E0.01682
G1 X140.916 Y40.914 E0.03339
G1 X140.916 Y40.381 E0.01675
G1 X141.667 Y41.131 E0.03330
G1 X141.665 Y40.595 E0.01682
G1 X140.916 Y39.847 E0.03321
G1 X140.916 Y39.313 E0.01675
G1 X141.663 Y40.059 E0.03312
G1 X141.661 Y39.524 E0.01682
G1 X140.916 Y38.779 E0.03303
G1 X140.916 Y38.245 E0.01675
G1 X141.659 Y38.988 E0.03294
G1 X141.657 Y38.452 E0.01682
G1 X140.916 Y37.712 E0.03285
G1 X140.916 Y37.178 E0.01675
G1 X141.655 Y37.916 E0.03276
G1 X141.653 Y37.380 E0.01682
G1 X140.916 Y36.644 E0.03268
G1 X140.916 Y36.110 E0.01675
G1 X141.651 Y36.845 E0.03259
G1 X141.649 Y36.309 E0.01682
G1 X140.916 Y35.577 E0.03250
G1 X140.916 Y35.043 E0.01675
G1 X141.647 Y35.773 E0.03241
G1 X141.645 Y35.237 E0.01682
G1 X140.916 Y34.509 E0.03232
G1 X140.916 Y33.975 E0.01675
G1 X141.643 Y34.701 E0.03223
G1 X141.641 Y34.166 E0.01682
G1 X140.916 Y33.442 E0.03214
G1 X140.916 Y32.908 E0.01675
G1 X141.639 Y33.630 E0.03205
G1 X141.637 Y33.094 E0.01682
G1 X140.916 Y32.374 E0.03196
G1 X140.916 Y31.840 E0.01675
G1 X141.805 Y32.729 E0.03943
G1 F8640.000
G1 X140.916 Y31.840 E-0.29012
G1 X140.916 Y32.374 E-0.12325
G1 X141.637 Y33.094 E-0.23515
G1 X141.639 Y33.630 E-0.12371
G1 X140.916 Y32.908 E-0.23581
G1 X140.916 Y33.442 E-0.12325
G1 X141.525 Y34.050 E-0.19870
G1 E-0.07000 F2100.00000
G1 Z0.400 F10800.000
G1 X140.401 Y31.325
G1 Z0.200
G1 E1.40000 F2100.00000
G1 F1200.000
G1 X140.057 Y30.980 E0.01529
G1 X140.265 Y30.655 E0.01213
G1 X141.633 Y32.023 E0.06071
G1 X141.630 Y31.487 E0.01682
G1 X140.473 Y30.329 E0.05138
G1 X140.681 Y30.003 E0.01213
G1 X141.628 Y30.951 E0.04206
G1 X141.626 Y30.415 E0.01682
G1 X140.889 Y29.678 E0.03273
G1 X141.097 Y29.352 E0.01213
G1 X141.624 Y29.879 E0.02340
G1 X141.622 Y29.344 E0.01682
G1 X141.305 Y29.026 E0.01408
G1 X141.513 Y28.701 E0.01213
G1 X141.791 Y28.978 E0.01231
G1 F8640.000
G1 X141.513 Y28.701 E-0.09057
G1 X141.305 Y29.026 E-0.08924
G1 X141.622 Y29.344 E-0.10357
G1 X141.624 Y29.879 E-0.12371
G1 X141.097 Y29.352 E-0.17218
G1 X140.889 Y29.678 E-0.08924
G1 X141.626 Y30.415 E-0.24080
G1 X141.628 Y30.951 E-0.12371
G1 X140.719 Y30.042 E-0.29697
G1 E-0.07000 F2100.00000
G1 Z0.400 F10800.000
G1 X132.119 Y30.326
G1 Z0.200
G1 E1.40000 F2100.00000
G1 F1200.000
G1 X130.772 Y28.978 E0.06037
G1 X130.770 Y29.515 E0.01701
G1 X132.410 Y31.155 E0.07348
G1 X131.871 Y31.155 E0.01707
G1 X130.768 Y30.052 E0.04942
G1 X130.766 Y30.589 E0.01701
G1 X131.477 Y31.300 E0.03185
G1 X131.477 Y31.839 E0.01707
G1 X130.764 Y31.126 E0.03194
G1 X130.762 Y31.663 E0.01701
G1 X131.477 Y32.377 E0.03203
G1 X131.477 Y32.916 E0.01707
G1 X130.760 Y32.200 E0.03212
G1 X130.758 Y32.736 E0.01701
G1 X131.477 Y33.455 E0.03221
G1 X131.477 Y33.994 E0.01707
G1 X130.756 Y33.273 E0.03230
G1 X130.754 Y33.810 E0.01701
G1 X131.477 Y34.533 E0.03239
G1 X131.477 Y35.072 E0.01707
G1 X130.752 Y34.347 E0.03248
G1 X130.750 Y34.884 E0.01701
G1 X131.477 Y35.611 E0.03257
G1 X131.477 Y36.149 E0.01707
G1 X130.748 Y35.421 E0.03266
G1 X130.746 Y35.958 E0.01701
G1 X131.477 Y36.688 E0.03275
G1 X131.477 Y37.227 E0.01707
G1 X130.744 Y36.494 E0.03284
G1 X130.742 Y37.031 E0.01701
G1 X131.477 Y37.766 E0.03293
G1 X131.477 Y38.305 E0.01707
G1 X130.740 Y37.568 E0.03302
G1 X130.738 Y38.105 E0.01701
