; generated by PrusaSlicer 2.2.0+linux-x64 on 2021-06-21 at 16:17:21 UTC

; 

; external perimeters extrusion width = 0.45mm
; perimeters extrusion width = 0.45mm
; infill extrusion width = 0.45mm
; solid infill extrusion width = 0.45mm
; top infill extrusion width = 0.40mm
; first layer extrusion width = 0.42mm

M73 P0 R54
M73 Q0 S54
M201 X1000 Y1000 Z200 E5000 ; sets maximum accelerations, mm/sec^2
M203 X200 Y200 Z12 E120 ; sets maximum feedrates, mm/sec
M204 P1250 R1250 T1250 ; sets acceleration (P, T) and retract acceleration (R), mm/sec^2
M205 X8.00 Y8.00 Z0.40 E4.50 ; sets the jerk limits, mm/sec
M205 S0 T0 ; sets the minimum extruding and travel feed rate, mm/sec
M107
M862.3 P "MK3S" ; printer model check
M862.1 P0.4 ; nozzle diameter check
M115 U3.9.3 ; tell printer latest fw version
G90 ; use absolute coordinates
M83 ; extruder relative mode
M104 S230 ; set extruder temp
M140 S85 ; set bed temp
M190 S85 ; wait for bed temp
M109 S230 ; wait for extruder temp
G28 W ; home all without mesh bed level
G80 ; mesh bed leveling
G1 Y-3.0 F1000.0 ; go outside print area
G92 E0.0
G1 X60.0 E9.0 F1000.0 ; intro line
M73 Q0 S54
M73 P0 R54
G1 X100.0 E12.5 F1000.0 ; intro line
G92 E0.0
M221 S95

; Don't change E values below. Excessive value can damage the printer.

M907 E538 ; set extruder motor current
G21 ; set units to millimeters
G90 ; use absolute coordinates
M83 ; use relative distances for extrusion
M900 K0.08 ; Filament gcode LA 1.5
M900 K45 ; Filament gcode LA 1.0
;BEFORE_LAYER_CHANGE
G92 E0.0
;0.2


G1 E-1.40000 F2100.00000
G1 Z0.200 F10800.000
;AFTER_LAYER_CHANGE
;0.2
G1 Z0.400
G1 X103.039 Y90.656
G1 Z0.200
G1 E1.40000 F2100.00000
M204 S1000
G1 F1200.000
G1 X104.503 Y89.154 E0.06577
G1 X104.996 Y88.845 E0.01823
G1 X105.549 Y88.666 E0.01823
G1 X122.795 Y85.632 E0.54903
G1 X145.004 Y85.623 E0.69636
G1 X145.892 Y85.797 E0.02837
G1 X146.648 Y86.287 E0.02825
G1 X147.169 Y87.027 E0.02837
G1 X147.375 Y87.908 E0.02837
G1 X147.376 Y122.057 E1.07074
G1 X147.309 Y122.566 E0.01609
G1 X147.132 Y123.052 E0.01621
G1 X146.856 Y123.485 E0.01609
G1 X146.494 Y123.849 E0.01609
G1 X145.815 Y124.233 E0.02449
G1 X145.051 Y124.377 E0.02437
G1 X122.764 Y124.365 E0.69877
G1 X105.427 Y121.307 E0.55200
G1 X104.948 Y121.132 E0.01597
G1 X104.518 Y120.859 E0.01597
G1 X103.154 Y119.497 E0.06045
G1 X102.768 Y118.818 E0.02449
G1 X102.623 Y118.046 E0.02461
G1 X102.625 Y91.893 E0.82000
G1 X102.746 Y91.244 E0.02071
G1 X103.013 Y90.710 E0.01871
; printing object tiefziehform_A_stempel_v3.stl id:1 copy 0
G1 F8640.000
G1 X104.503 Y89.154 E-0.49756
G1 X104.996 Y88.845 E-0.13423
G1 X105.549 Y88.666 E-0.13423
G1 X107.955 Y88.243 E-0.56398
G1 E-0.07000 F2100.00000
G1 Z0.400 F10800.000
G1 X123.787 Y97.634
G1 Z0.200
G1 E1.40000 F2100.00000
G1 F1200.000
G1 X123.787 Y88.787 E0.27738
G1 X144.213 Y88.787 E0.64044
G1 X144.213 Y121.213 E1.01669
G1 X123.787 Y121.213 E0.64044
G1 X123.787 Y97.694 E0.73743
G1 X123.410 Y97.694 F10800.000
G1 F1200.000
G1 X123.410 Y88.410 E0.29108
G1 X144.590 Y88.410 E0.66408
G1 X144.590 Y121.590 E1.04034
G1 X123.410 Y121.590 E0.66408
G1 X123.410 Y97.754 E0.74737
G1 X123.698 Y97.417 F10800.000
G1 F8640.000
G1 X123.410 Y91.994 E-1.33000
G1 E-0.07000 F2100.00000
G1 Z0.400 F10800.000
G1 X124.666 Y121.100
G1 Z0.200
G1 E1.40000 F2100.00000
G1 F1200.000
G1 X124.070 Y120.504 E0.02653
G1 X124.070 Y119.969 E0.01686
G1 X125.031 Y120.930 E0.04281
G1 X125.567 Y120.930 E0.01686
G1 X124.070 Y119.433 E0.06665
G1 X124.070 Y118.898 E0.01686
G1 X126.102 Y120.930 E0.09049
G1 X126.638 Y120.930 E0.01686
G1 X124.070 Y118.362 E0.11433
G1 X124.070 Y117.827 E0.01686
G1 X127.173 Y120.930 E0.13817
G1 X127.709 Y120.930 E0.01686
G1 X124.070 Y117.291 E0.16201
G1 X124.070 Y116.756 E0.01686
G1 X128.244 Y120.930 E0.18585
G1 X128.780 Y120.930 E0.01686
G1 X124.070 Y116.220 E0.20969
G1 X124.070 Y115.685 E0.01686
G1 X129.315 Y120.930 E0.23353
G1 X129.850 Y120.930 E0.01686
G1 X124.070 Y115.149 E0.25737
G1 X124.070 Y114.614 E0.01686
G1 X130.386 Y120.930 E0.28121
G1 X130.921 Y120.930 E0.01686
G1 X124.070 Y114.079 E0.30505
G1 X124.070 Y113.543 E0.01686
G1 X131.457 Y120.930 E0.32889
G1 X131.992 Y120.930 E0.01686
G1 X124.070 Y113.008 E0.35273
G1 X124.070 Y112.472 E0.01686
G1 X132.528 Y120.930 E0.37657
G1 X133.063 Y120.930 E0.01686
G1 X124.070 Y111.937 E0.40041
G1 X124.070 Y111.401 E0.01686
G1 X133.599 Y120.930 E0.42425
G1 X134.134 Y120.930 E0.01686
G1 X124.070 Y110.866 E0.44809
G1 X124.070 Y110.330 E0.01686
G1 X134.670 Y120.930 E0.47193
G1 X135.205 Y120.930 E0.01686
G1 X124.070 Y109.795 E0.49577
G1 X124.070 Y109.259 E0.01686
G1 X135.741 Y120.930 E0.51961
G1 X136.276 Y120.930 E0.01686
G1 X124.070 Y108.724 E0.54346
G1 X124.070 Y108.189 E0.01686
G1 X136.811 Y120.930 E0.56730
G1 X137.347 Y120.930 E0.01686
G1 X124.070 Y107.653 E0.59114
G1 X124.070 Y107.118 E0.01686
G1 X137.882 Y120.930 E0.61498
G1 X138.418 Y120.930 E0.01686
G1 X124.070 Y106.582 E0.63882
G1 X124.070 Y106.047 E0.01686
G1 X138.953 Y120.930 E0.66266
G1 X139.489 Y120.930 E0.01686
G1 X124.070 Y105.511 E0.68650
G1 X124.070 Y104.976 E0.01686
G1 X140.024 Y120.930 E0.71034
G1 X140.560 Y120.930 E0.01686
G1 X124.070 Y104.440 E0.73418
G1 X124.070 Y103.905 E0.01686
G1 X141.095 Y120.930 E0.75802
G1 X141.631 Y120.930 E0.01686
G1 X124.070 Y103.369 E0.78186
G1 X124.070 Y102.834 E0.01686
G1 X142.166 Y120.930 E0.80570
G1 X142.701 Y120.930 E0.01686
G1 X124.070 Y102.299 E0.82954
G1 X124.070 Y101.763 E0.01686
G1 X143.237 Y120.930 E0.85338
G1 X143.772 Y120.930 E0.01686
G1 X124.070 Y101.228 E0.87722
G1 X124.070 Y100.692 E0.01686
G1 X143.930 Y120.552 E0.88424
G1 X143.930 Y120.017 E0.01686
G1 X124.070 Y100.157 E0.88424
G1 X124.070 Y99.621 E0.01686
G1 X143.930 Y119.482 E0.88424
G1 X143.930 Y118.946 E0.01686
G1 X124.070 Y99.086 E0.88424
G1 X124.070 Y98.550 E0.01686
G1 X143.930 Y118.411 E0.88424
G1 X143.930 Y117.875 E0.01686
G1 X124.070 Y98.015 E0.88424
M73 Q1 S53
G1 X124.070 Y97.479 E0.01686
G1 X143.930 Y117.340 E0.88424
M73 P1 R53
G1 X143.930 Y116.804 E0.01686
G1 X124.070 Y96.944 E0.88424
G1 X124.070 Y96.409 E0.01686
G1 X143.930 Y116.269 E0.88424
G1 X143.930 Y115.733 E0.01686
G1 X124.070 Y95.873 E0.88424
G1 X124.070 Y95.338 E0.01686
G1 X143.930 Y115.198 E0.88424
G1 X143.930 Y114.662 E0.01686
G1 X124.070 Y94.802 E0.88424
G1 X124.070 Y94.267 E0.01686
G1 X143.930 Y114.127 E0.88424
G1 X143.930 Y113.592 E0.01686
G1 X124.070 Y93.731 E0.88424
G1 X124.070 Y93.196 E0.01686
G1 X143.930 Y113.056 E0.88424
G1 X143.930 Y112.521 E0.01686
G1 X124.070 Y92.660 E0.88424
G1 X124.070 Y92.125 E0.01686
G1 X143.930 Y111.985 E0.88424
G1 X143.930 Y111.450 E0.01686
G1 X124.070 Y91.589 E0.88424
G1 X124.070 Y91.054 E0.01686
G1 X143.930 Y110.914 E0.88424
G1 X143.930 Y110.379 E0.01686
G1 X124.070 Y90.519 E0.88424
G1 X124.070 Y89.983 E0.01686
G1 X143.930 Y109.843 E0.88424
G1 X143.930 Y109.308 E0.01686
G1 X124.070 Y89.448 E0.88424
G1 X124.070 Y89.070 E0.01189
G1 X124.228 Y89.070 E0.00496
G1 X143.930 Y108.772 E0.87722
G1 X143.930 Y108.237 E0.01686
G1 X124.763 Y89.070 E0.85338
G1 X125.298 Y89.070 E0.01686
G1 X143.930 Y107.702 E0.82954
G1 X143.930 Y107.166 E0.01686
G1 X125.834 Y89.070 E0.80570
G1 X126.369 Y89.070 E0.01686
G1 X143.930 Y106.631 E0.78186
G1 X143.930 Y106.095 E0.01686
G1 X126.905 Y89.070 E0.75802
G1 X127.440 Y89.070 E0.01686
G1 X143.930 Y105.560 E0.73418
G1 X143.930 Y105.024 E0.01686
G1 X127.976 Y89.070 E0.71034
G1 X128.511 Y89.070 E0.01686
G1 X143.930 Y104.489 E0.68650
G1 X143.930 Y103.953 E0.01686
G1 X129.047 Y89.070 E0.66266
G1 X129.582 Y89.070 E0.01686
G1 X143.930 Y103.418 E0.63882
G1 X143.930 Y102.882 E0.01686
G1 X130.118 Y89.070 E0.61498
G1 X130.653 Y89.070 E0.01686
G1 X143.930 Y102.347 E0.59114
G1 X143.930 Y101.812 E0.01686
G1 X131.188 Y89.070 E0.56730
G1 X131.724 Y89.070 E0.01686
G1 X143.930 Y101.276 E0.54346
G1 X143.930 Y100.741 E0.01686
G1 X132.259 Y89.070 E0.51962
G1 X132.795 Y89.070 E0.01686
G1 X143.930 Y100.205 E0.49578
G1 X143.930 Y99.670 E0.01686
G1 X133.330 Y89.070 E0.47194
G1 X133.866 Y89.070 E0.01686
G1 X143.930 Y99.134 E0.44810
G1 X143.930 Y98.599 E0.01686
G1 X134.401 Y89.070 E0.42426
G1 X134.937 Y89.070 E0.01686
G1 X143.930 Y98.063 E0.40042
G1 X143.930 Y97.528 E0.01686
G1 X135.472 Y89.070 E0.37658
G1 X136.008 Y89.070 E0.01686
G1 X143.930 Y96.992 E0.35274
G1 X143.930 Y96.457 E0.01686
G1 X136.543 Y89.070 E0.32890
G1 X137.078 Y89.070 E0.01686
G1 X143.930 Y95.922 E0.30506
G1 X143.930 Y95.386 E0.01686
G1 X137.614 Y89.070 E0.28122
G1 X138.149 Y89.070 E0.01686
G1 X143.930 Y94.851 E0.25738
G1 X143.930 Y94.315 E0.01686
G1 X138.685 Y89.070 E0.23354
G1 X139.220 Y89.070 E0.01686
G1 X143.930 Y93.780 E0.20970
G1 X143.930 Y93.244 E0.01686
G1 X139.756 Y89.070 E0.18586
G1 X140.291 Y89.070 E0.01686
G1 X143.930 Y92.709 E0.16202
G1 X143.930 Y92.173 E0.01686
G1 X140.827 Y89.070 E0.13818
G1 X141.362 Y89.070 E0.01686
G1 X143.930 Y91.638 E0.11434
G1 X143.930 Y91.102 E0.01686
G1 X141.898 Y89.070 E0.09050
G1 X142.433 Y89.070 E0.01686
G1 X143.930 Y90.567 E0.06666
G1 X143.930 Y90.032 E0.01686
G1 X142.968 Y89.070 E0.04281
G1 X143.504 Y89.070 E0.01686
G1 X144.100 Y89.666 E0.02653
; stop printing object tiefziehform_A_stempel_v3.stl id:1 copy 0
; printing object tiefziehform_A_matrizze_v3.stl id:0 copy 0
G1 F8640.000
G1 X143.504 Y89.070 E-0.19458
G1 X142.968 Y89.070 E-0.12364
G1 X143.930 Y90.032 E-0.31402
G1 X143.930 Y90.567 E-0.12364
G1 X142.433 Y89.070 E-0.48887
G1 X142.064 Y89.070 E-0.08526
G1 E-0.07000 F2100.00000
G1 Z0.400 F10800.000
G1 X105.787 Y110.213
G1 Z0.200
G1 E1.40000 F2100.00000
G1 F1200.000
G1 X105.787 Y92.326 E0.56083
G1 X106.326 Y91.787 E0.02390
G1 X115.674 Y91.787 E0.29310
G1 X116.213 Y92.326 E0.02390
G1 X116.213 Y117.674 E0.79477
G1 X115.674 Y118.213 E0.02390
G1 X106.326 Y118.213 E0.29310
G1 X105.787 Y117.674 E0.02390
G1 X105.787 Y110.273 E0.23206
G1 X105.410 Y110.273 F10800.000
G1 F1200.000
G1 X105.410 Y92.170 E0.56761
G1 X106.170 Y91.410 E0.03369
G1 X115.830 Y91.410 E0.30289
G1 X116.590 Y92.170 E0.03369
G1 X116.590 Y117.830 E0.80456
G1 X115.830 Y118.590 E0.03369
G1 X106.170 Y118.590 E0.30289
G1 X105.410 Y117.830 E0.03369
G1 X105.410 Y110.333 E0.23507
G1 X105.750 Y110.062 F10800.000
G1 F8640.000
G1 X105.410 Y104.573 E-1.33000
G1 E-0.07000 F2100.00000
G1 Z0.400 F10800.000
G1 X116.100 Y92.615
G1 Z0.200
G1 E1.40000 F2100.00000
G1 F1200.000
G1 X115.554 Y92.070 E0.02440
G1 X115.016 Y92.070 E0.01702
G1 X115.930 Y92.984 E0.04087
G1 X115.930 Y93.522 E0.01702
G1 X114.478 Y92.070 E0.06494
M73 Q3 S52
G1 X113.940 Y92.070 E0.01702
G1 X115.930 Y94.060 E0.08901
G1 X115.930 Y94.598 E0.01702
G1 X113.402 Y92.070 E0.11307
G1 X112.864 Y92.070 E0.01702
G1 X115.930 Y95.136 E0.13714
G1 X115.930 Y95.674 E0.01702
G1 X112.326 Y92.070 E0.16120
G1 X111.789 Y92.070 E0.01702
G1 X115.930 Y96.211 E0.18527
G1 X115.930 Y96.749 E0.01702
G1 X111.251 Y92.070 E0.20934
M73 P3 R52
G1 X110.713 Y92.070 E0.01702
G1 X115.930 Y97.287 E0.23340
G1 X115.930 Y97.825 E0.01702
G1 X110.175 Y92.070 E0.25747
G1 X109.637 Y92.070 E0.01702
G1 X115.930 Y98.363 E0.28153
G1 X115.930 Y98.901 E0.01702
G1 X109.099 Y92.070 E0.30560
G1 X108.561 Y92.070 E0.01702
G1 X115.930 Y99.439 E0.32967
G1 X115.930 Y99.977 E0.01702
G1 X108.023 Y92.070 E0.35373
G1 X107.485 Y92.070 E0.01702
G1 X115.930 Y100.515 E0.37780
G1 X115.930 Y101.053 E0.01702
G1 X106.947 Y92.070 E0.40187
G1 X106.443 Y92.070 E0.01593
G1 X106.426 Y92.087 E0.00077
G1 X115.930 Y101.591 E0.42516
G1 X115.930 Y102.129 E0.01702
G1 X106.157 Y92.356 E0.43719
G1 X106.070 Y92.443 E0.00389
G1 X106.070 Y92.807 E0.01151
G1 X115.930 Y102.667 E0.44109
G1 X115.930 Y103.205 E0.01702
G1 X106.070 Y93.345 E0.44109
G1 X106.070 Y93.883 E0.01702
G1 X115.930 Y103.743 E0.44109
G1 X115.930 Y104.281 E0.01702
G1 X106.070 Y94.421 E0.44109
G1 X106.070 Y94.959 E0.01702
G1 X115.930 Y104.819 E0.44109
G1 X115.930 Y105.357 E0.01702
G1 X106.070 Y95.497 E0.44109
G1 X106.070 Y96.035 E0.01702
G1 X115.930 Y105.895 E0.44109
G1 X115.930 Y106.433 E0.01702
G1 X106.070 Y96.573 E0.44109
G1 X106.070 Y97.111 E0.01702
G1 X115.930 Y106.971 E0.44109
G1 X115.930 Y107.509 E0.01702
G1 X106.070 Y97.649 E0.44109
G1 X106.070 Y98.187 E0.01702
G1 X115.930 Y108.047 E0.44109
G1 X115.930 Y108.585 E0.01702
G1 X106.070 Y98.725 E0.44109
G1 X106.070 Y99.263 E0.01702
G1 X115.930 Y109.123 E0.44109
G1 X115.930 Y109.661 E0.01702
G1 X106.070 Y99.801 E0.44109
G1 X106.070 Y100.339 E0.01702
G1 X115.930 Y110.199 E0.44109
G1 X115.930 Y110.737 E0.01702
G1 X106.070 Y100.877 E0.44109
G1 X106.070 Y101.415 E0.01702
G1 X115.930 Y111.275 E0.44109
G1 X115.930 Y111.813 E0.01702
G1 X106.070 Y101.953 E0.44109
G1 X106.070 Y102.491 E0.01702
G1 X115.930 Y112.351 E0.44109
G1 X115.930 Y112.889 E0.01702
G1 X106.070 Y103.029 E0.44109
G1 X106.070 Y103.567 E0.01702
G1 X115.930 Y113.427 E0.44109
G1 X115.930 Y113.965 E0.01702
G1 X106.070 Y104.105 E0.44109
G1 X106.070 Y104.643 E0.01702
G1 X115.930 Y114.503 E0.44109
G1 X115.930 Y115.041 E0.01702
G1 X106.070 Y105.181 E0.44109
G1 X106.070 Y105.719 E0.01702
G1 X115.930 Y115.579 E0.44109
G1 X115.930 Y116.117 E0.01702
G1 X106.070 Y106.257 E0.44109
G1 X106.070 Y106.795 E0.01702
G1 X115.930 Y116.655 E0.44109
G1 X115.930 Y117.193 E0.01702
G1 X106.070 Y107.333 E0.44109
G1 X106.070 Y107.871 E0.01702
G1 X115.843 Y117.644 E0.43719
G1 X115.574 Y117.913 E0.01203
G1 X106.070 Y108.409 E0.42516
G1 X106.070 Y108.947 E0.01702
G1 X115.053 Y117.930 E0.40186
G1 X114.515 Y117.930 E0.01702
G1 X106.070 Y109.485 E0.37780
G1 X106.070 Y110.023 E0.01702
G1 X113.977 Y117.930 E0.35373
G1 X113.439 Y117.930 E0.01702
G1 X106.070 Y110.561 E0.32966
G1 X106.070 Y111.099 E0.01702
G1 X112.901 Y117.930 E0.30560
G1 X112.363 Y117.930 E0.01702
G1 X106.070 Y111.637 E0.28153
G1 X106.070 Y112.175 E0.01702
G1 X111.825 Y117.930 E0.25747
G1 X111.287 Y117.930 E0.01702
G1 X106.070 Y112.713 E0.23340
G1 X106.070 Y113.251 E0.01702
G1 X110.749 Y117.930 E0.20933
G1 X110.211 Y117.930 E0.01702
G1 X106.070 Y113.789 E0.18527
G1 X106.070 Y114.327 E0.01702
G1 X109.673 Y117.930 E0.16120
G1 X109.135 Y117.930 E0.01702
G1 X106.070 Y114.865 E0.13714
G1 X106.070 Y115.403 E0.01702
G1 X108.597 Y117.930 E0.11307
G1 X108.059 Y117.930 E0.01702
G1 X106.070 Y115.941 E0.08900
G1 X106.070 Y116.478 E0.01702
G1 X107.521 Y117.930 E0.06494
G1 X106.984 Y117.930 E0.01702
G1 X106.070 Y117.016 E0.04087
G1 X106.070 Y117.554 E0.01702
G1 X106.615 Y118.100 E0.02439
; stop printing object tiefziehform_A_matrizze_v3.stl id:0 copy 0
;BEFORE_LAYER_CHANGE
G92 E0.0
;0.4


G1 F8640.000
G1 X106.070 Y117.554 E-0.17808
G1 X106.070 Y117.016 E-0.12422
G1 X106.984 Y117.930 E-0.29834
G1 X107.521 Y117.930 E-0.12422
G1 X106.070 Y116.478 E-0.47402
G1 X106.070 Y115.941 E-0.12422
G1 X106.091 Y115.962 E-0.00689
G1 E-0.07000 F2100.00000
G1 Z0.400 F10800.000
;AFTER_LAYER_CHANGE
;0.4
M104 S240 ; set temperature
M140 S90 ; set bed temperature
G1 Z0.600
G1 X102.768 Y118.818
G1 Z0.400
G1 E1.40000 F2100.00000
G1 F3000.000
G1 X102.623 Y118.046 E0.02461
G1 X102.625 Y91.893 E0.82000
G1 X102.746 Y91.244 E0.02071
G1 X103.039 Y90.656 E0.02060
G1 X104.503 Y89.154 E0.06577
G1 X104.996 Y88.845 E0.01823
G1 X105.549 Y88.666 E0.01823
G1 X122.795 Y85.632 E0.54903
G1 X145.004 Y85.623 E0.69636
G1 X145.892 Y85.797 E0.02837
G1 X146.648 Y86.287 E0.02825
G1 X147.169 Y87.027 E0.02837
G1 X147.375 Y87.908 E0.02837
G1 X147.376 Y122.057 E1.07074
G1 X147.309 Y122.566 E0.01609
G1 X147.132 Y123.052 E0.01621
G1 X146.856 Y123.485 E0.01609
G1 X146.494 Y123.849 E0.01609
G1 X145.815 Y124.233 E0.02449
G1 X145.051 Y124.377 E0.02437
G1 X122.764 Y124.365 E0.69877
G1 X105.427 Y121.307 E0.55200
G1 X104.948 Y121.132 E0.01597
G1 X104.518 Y120.859 E0.01597
G1 X103.154 Y119.497 E0.06045
G1 X102.798 Y118.870 E0.02261
; printing object tiefziehform_A_stempel_v3.stl id:1 copy 0
G1 F8640.000
G1 X102.623 Y118.046 E-0.19438
G1 X102.624 Y113.128 E-1.13562
G1 E-0.07000 F2100.00000
G1 Z0.600 F10800.000
G1 X123.632 Y98.016
G1 Z0.400
G1 E1.40000 F2100.00000
M204 S800
G1 F3600.000
G1 X123.632 Y88.632 E0.31764
G1 X144.368 Y88.632 E0.70188
G1 X144.368 Y121.368 E1.10807
G1 X123.632 Y121.368 E0.70188
G1 X123.632 Y98.076 E0.78840
M204 S1000
G1 X123.225 Y98.076 F10800.000
M204 S800
G1 F2100.000
G1 X123.225 Y88.225 E0.33345
G1 X144.775 Y88.225 E0.72944
